svgs/regular/table-tree.svg

<svg xmlns="http://www.w3.org/2000/svg" viewBox="0 0 512 512"><!--! Font Awesome Pro 6.5.1 by @fontawesome - https://fontawesome.com License - https://fontawesome.com/license (Commercial License) Copyright 2023 Fonticons, Inc. --><path d="M48 160V416c0 8.8 7.2 16 16 16H448c8.8 0 16-7.2 16-16V160H128v64c0 8.8 7.2 16 16 16h32c8.8 0 16 7.2 16 16s-7.2 16-16 16H144c-5.6 0-11-1-16-2.7V320c0 8.8 7.2 16 16 16h96c8.8 0 16 7.2 16 16s-7.2 16-16 16H144c-26.5 0-48-21.5-48-48V224 160H48zM0 96C0 60.7 28.7 32 64 32H448c35.3 0 64 28.7 64 64V416c0 35.3-28.7 64-64 64H64c-35.3 0-64-28.7-64-64V96zM224 240c0-8.8 7.2-16 16-16H400c8.8 0 16 7.2 16 16v32c0 8.8-7.2 16-16 16H240c-8.8 0-16-7.2-16-16V240zm80 80h96c8.8 0 16 7.2 16 16v32c0 8.8-7.2 16-16 16H304c-8.8 0-16-7.2-16-16V336c0-8.8 7.2-16 16-16z"/></svg>

<svg xmlns="http://www.w3.org/2000/svg" viewBox="0 0 512 512"><!--! Font Awesome Pro 6.1.1 by @fontawesome - https://fontawesome.com License - https://fontawesome.com/license (Commercial License) Copyright 2022 Fonticons, Inc. --><path d="M224 240C224 231.2 231.2 224 240 224H400C408.8 224 416 231.2 416 240V272C416 280.8 408.8 288 400 288H240C231.2 288 224 280.8 224 272V240zM400 320C408.8 320 416 327.2 416 336V368C416 376.8 408.8 384 400 384H304C295.2 384 288 376.8 288 368V336C288 327.2 295.2 320 304 320H400zM0 96C0 60.65 28.65 32 64 32H448C483.3 32 512 60.65 512 96V416C512 451.3 483.3 480 448 480H64C28.65 480 0 451.3 0 416V96zM48 160V416C48 424.8 55.16 432 64 432H448C456.8 432 464 424.8 464 416V160H128V224C128 232.8 135.2 240 144 240H176C184.8 240 192 247.2 192 256C192 264.8 184.8 272 176 272H144C138.4 272 133 271 128 269.3V320C128 328.8 135.2 336 144 336H240C248.8 336 256 343.2 256 352C256 360.8 248.8 368 240 368H144C117.5 368 96 346.5 96 320V160H48z"/></svg>
